X: 93
P: Longways for as many as will
M: 6/4
L: 1/4
K: Cdor
c>dc ccG | c>dc ccG | c>de d>e (d/c/) | =B2G G2_A |\
[| D |\
E2F G>FE | GAB B2_A/G/ | c2d edc | def f2(e/d/) |\
g2_a b_ag | f2e fed | edc B2=B | c3- c2 |]

